Adwaita++-Dark/mimetypes/16/libreoffice-formula.svg

<svg height="16" width="16" xmlns="http://www.w3.org/2000/svg">
  <g fill="#e6ddff">
    <path d="m6.9385 3.0377329h9.061501v1.8114h-.9062v-.6038h-7.399201l-3.6919 8.7546991h-.5362l-2.2611-4.8249991-.8805.4615-.3249-1.1314 1.8274-.6952 1.9009 3.7100991 3.2095-7.4822991"/>
    <path d="m15.450201 6.0566329h-1.497l-1.84 2.4147h-.047l-1.7776-2.4147h-1.621701l2.546701 3.3856v.043l-2.640301 3.5146991h1.497001l1.9647-2.6155h.047l1.9648 2.6155h1.6217l-2.7026-3.5720991v-.043z"/>
  </g>
</svg>

<svg xmlns="http://www.w3.org/2000/svg" width="16" height="16" version="1.1">
 <path d="m 6.9385,3.0377329 h 9.061501 v 1.8114 h -0.9062 v -0.6038 H 7.6946 L 4.0027,13.000032 H 3.4665 L 1.2054,8.1750329 0.3249,8.6365329 0,7.5051329 1.8274,6.8099329 3.7283,10.520032 6.9378,3.0377329" style="fill:#E6DDFF"/>
 <path d="m 15.450201,6.0566329 h -1.497 l -1.84,2.4147 h -0.047 l -1.7776,-2.4147 H 8.6669 l 2.546701,3.3856 v 0.043 L 8.5733,12.999932 h 1.497001 l 1.9647,-2.6155 h 0.047 l 1.9648,2.6155 h 1.6217 l -2.7026,-3.5720991 v -0.043 l 2.4843,-3.3282" style="fill:#E6DDFF"/>
</svg>
